icon-themes/sifr_svg/cmd/lc_insertvideo.svg

<svg viewBox="0 0 24 24" xmlns="http://www.w3.org/2000/svg"><path d="m2 2v20h20v-20zm4 2h12v16h-12zm-3 1h2v2h-2zm16 0h2v2h-2zm-16 4h2v2h-2zm16 0h2v2h-2zm-16 4h2v2h-2zm16 0h2v2h-2zm-16 4h2v2h-2zm16 0h2v2h-2z" fill="#555753"/></svg>

<svg xmlns="http://www.w3.org/2000/svg" viewBox="0 0 24 24">
  <path
     style="fill:#555753"
     d="M 2 2 L 2 22 L 22 22 L 22 2 L 2 2 z M 6 4 L 18 4 L 18 20 L 6 20 L 6 4 z M 3 5 L 5 5 L 5 7 L 3 7 L 3 5 z M 19 5 L 21 5 L 21 7 L 19 7 L 19 5 z M 3 9 L 5 9 L 5 11 L 3 11 L 3 9 z M 19 9 L 21 9 L 21 11 L 19 11 L 19 9 z M 3 13 L 5 13 L 5 15 L 3 15 L 3 13 z M 19 13 L 21 13 L 21 15 L 19 15 L 19 13 z M 3 17 L 5 17 L 5 19 L 3 19 L 3 17 z M 19 17 L 21 17 L 21 19 L 19 19 L 19 17 z "
     />
</svg>
